icons/desktop/20/delete-20.svg

<svg width="20" height="20" viewBox="0 0 20 20" fill="none" xmlns="http://www.w3.org/2000/svg">
<path d="M7.87504 8C8.35829 8 8.75004 8.39175 8.75004 8.875V15.125C8.75004 15.6082 8.35829 16 7.87504 16C7.39179 16 7.00004 15.6082 7.00004 15.125V8.875C7.00004 8.39175 7.39179 8 7.87504 8Z" fill="black"/>
<path d="M12.125 8C12.6083 8 13 8.39175 13 8.875V15.125C13 15.6082 12.6083 16 12.125 16C11.6418 16 11.25 15.6082 11.25 15.125V8.875C11.25 8.39175 11.6418 8 12.125 8Z" fill="black"/>
<path fill-rule="evenodd" clip-rule="evenodd" d="M10 0C10.7895 0 11.4987 0.0854602 12.1055 0.205078C13.2297 0.426359 14 1.42399 14 2.53418V4.17871C15.3388 4.29745 16.7734 4.48311 18.2852 4.76465C18.7603 4.85312 19.0738 5.3101 18.9854 5.78516C18.8969 6.26022 18.4399 6.57379 17.9649 6.48535C17.8092 6.45637 17.654 6.43124 17.5 6.4043V16.5205C17.4998 18.0601 16.3844 19.3641 14.8672 19.6094C13.4502 19.8378 11.8143 20 10 20C8.62467 20 6.95877 19.9074 5.08793 19.6016C3.57243 19.3546 2.50024 18.0249 2.50004 16.5234V6.40332C2.34275 6.43084 2.18757 6.45698 2.03519 6.48535C1.56012 6.57379 1.10314 6.26023 1.01468 5.78516C0.926248 5.31008 1.2398 4.8531 1.71488 4.76465C2.98499 4.52818 4.42058 4.31981 6.00004 4.17969V2.53418C6.00004 1.38696 6.82128 0.412827 7.93558 0.197266L7.93656 0.196289C8.75058 0.0397877 9.45952 0 10 0ZM10 5.75C7.88695 5.75 5.95798 5.90605 4.25004 6.13379V16.5234C4.25024 17.2012 4.73354 17.7715 5.36918 17.875C7.13229 18.1632 8.70343 18.25 10 18.25C11.7093 18.25 13.2512 18.0973 14.5879 17.8818L14.712 17.8555C15.3199 17.7004 15.7498 17.1561 15.75 16.5205V6.13086C13.6065 5.84507 11.6672 5.75 10 5.75ZM10 1.75C9.65991 1.75 9.23999 1.76901 8.76273 1.83398L8.26761 1.91504C7.96439 1.97383 7.75004 2.2377 7.75004 2.53418V4.05566C8.47516 4.01957 9.22574 4 10 4C10.7049 4 11.4564 4.0191 12.25 4.05859V2.53418C12.25 2.22472 12.0369 1.97597 11.7676 1.92285C11.2584 1.82248 10.6625 1.75 10 1.75Z" fill="black"/>
</svg>

<!-- This Source Code Form is subject to the terms of the Mozilla Public
   - License, v. 2.0. If a copy of the MPL was not distributed with this
   - file, You can obtain one at http://mozilla.org/MPL/2.0/. -->
<svg xmlns="http://www.w3.org/2000/svg" width="20" height="20" fill="context-fill" fill-opacity="context-fill-opacity" viewBox="0 0 20 20">
    <path d="M7.875 8c.483 0 .875.392.875.875v6.25a.875.875 0 0 1-1.75 0v-6.25C7 8.392 7.392 8 7.875 8M12.125 8c.483 0 .875.392.875.875v6.25a.875.875 0 1 1-1.75 0v-6.25c0-.483.392-.875.875-.875" />
    <path fill-rule="evenodd" d="M10 0c.79 0 1.499.085 2.105.205C13.23.426 14 1.424 14 2.535v1.644c1.339.118 2.773.304 4.285.586a.875.875 0 0 1-.32 1.72q-.234-.042-.465-.08V16.52a3.13 3.13 0 0 1-2.633 3.09 30.6 30.6 0 0 1-9.78-.008C3.573 19.355 2.5 18.025 2.5 16.523V6.403q-.236.041-.465.082a.875.875 0 0 1-.32-1.72A45 45 0 0 1 6 4.18V2.534C6 1.387 6.821.413 7.936.197A11 11 0 0 1 10 0m0 5.75c-2.113 0-4.042.156-5.75.384v10.39c0 .677.484 1.247 1.12 1.351a28.7 28.7 0 0 0 9.218.007l.124-.027a1.376 1.376 0 0 0 1.038-1.335V6.13A43.5 43.5 0 0 0 10 5.75m0-4c-.34 0-.76.019-1.237.084l-.495.081a.636.636 0 0 0-.518.62v1.52a45 45 0 0 1 4.5.004V2.534a.615.615 0 0 0-.482-.611A9 9 0 0 0 10 1.75" clip-rule="evenodd" />
</svg>
